X: 1
T: Teviot Brig
T: Teviot Bridge
B: RSCDS __-1
D: Winston Scotty Fitzgerald on Celtic 17
N: BSFC  VIII-21
N: Gow's Repository 1817. Above air from Companion to the Reticule.
N: Hunter  304
N: OTDT  p.64
N: Skye  p.176
O: Gow's Repository 1817
R: jig
Z: 1997 by John Chambers <jc:trillian.mit.edu>
M: 6/8
L: 1/8
%--------------------
K: G
e \
| "G"dBG GBG | "C"E2G "G"D2G | "G"DEF "Em"GAB | "Am"c2B "D7"A2e \
| "G"dBG GBG | "C"E2G "G"D2B | "C"cde "G"dBG | "D7"A3 "G"G2 :|
e \
| "G"dBG GBd | "C"ece efg | "G"dBG GFG | "D7"AFD D2B/c/ \
| "G"dBG GBd | "C"ece efg | "G"dBG "D7"AFD | "G"G3- G2 ||
B/c/ \
| "G"dBG GBd | "C"ece efg | "G"dBG GFG | "D7"AFD D2B/c/ \
| "G"dBd "C"ece | "D7"fdf "Em"gfe | "D7"dcB AGF | "G"G3- G2 |]
%%center Book05/05011-Teviot_Brig-1.abc

%%sep 1 1 500
%%sep 1 1 500

